X: 1
T: Tonder… The Eternal Friendship
M: 4/4
L: 1/8
Q: 165
K: Amaj
EF|: G2 A3 EAB | d2 c4 ae | f2 dc d3 A | c2 B4 EF | G2 A3 EAB | c2 A2 a3e | f2 dc B3A |1 B6 EF:|2 A6 ae |: f2 dc B3G | E2 d2 cAae | f2 dc B3A | c2 B4 ae | f2 dc B3G | E2 d2 c>BAG | F>EFG A3B |B6 ae | f2 dc B3G | E2 d2 cAae | f2 dc B3A | c2 B4 EF | G2 A3 EAB | c2 A2 a3e | f2 dc B3A | A6 ||
